X:84
T: 'T Lidd vun de Mlleren (1-6), S. 15
N: K0084
O: Luxemburg
S: KINTZELE, Guillaume: An der Ucht, Bd. 1, Luxemburg 1926]
R: Berufslied]
M: 6/8
L: 1/8
K: G
D | G2BA2G | F2AG2
E | F2GAGF | EDEDz
d | dddede | d2AA2
A | d^cBABA | GFED2
D | GFGAGB | A2GG2

@@@ Tune index: 8138
